X: 27898
T: Mountain Lark, The
R: reel
M: 4/4
K: Bminor
F~E3 FEDE|F~E3 FBBA|F~E3 FEDE|1 D3E FBBA:|2 D3E FAA2||
B~e3 fded|BeeB dBAB|B~e3 fded|B2Bc dBAF|
B~e3 fded|fgfe d4|fdec dBAF|B3c dBAG||

